brandFactory_export/1.Light/Metro _1Light.svg

<?xml version="1.0" encoding="UTF-8"?>
<svg width="24px" height="24px" viewBox="0 0 24 24" version="1.1" xmlns="http://www.w3.org/2000/svg" xmlns:xlink="http://www.w3.org/1999/xlink">
    <title>1.Light/Metro _1Light</title>
    <g id="Symbols" stroke="none" stroke-width="1" fill="none" fill-rule="evenodd">
        <g id="1.Light/Metro-_1Light" fill="#5CB615" fill-rule="nonzero">
            <path d="M13.1428571,4.19327731 L0.981512605,4.19327731 L0.981512605,5.35630252 L11.697479,5.35630252 C11.9697479,5.35630252 12.1882353,5.62184874 12.1882353,5.94789916 L12.1882353,11.2823529 C12.1882353,11.6117647 11.9697479,11.8739496 11.697479,11.8739496 L0.98487395,11.8739496 L0.98487395,14.2672269 L22.312605,14.2672269 C22.3193277,14.2672269 22.3260504,14.2705882 22.3327731,14.2705882 C22.4571429,13.9310924 22.5512605,13.5781513 22.5848739,13.1983193 C22.6218487,12.794958 22.5848739,12.3848739 22.4941176,11.9714286 L13.6739496,11.9714286 C13.4016807,11.9714286 13.1831933,11.7092437 13.1831933,11.3798319 L13.1831933,4.19327731 C13.1630252,4.19663866 13.1462185,4.19663866 13.1428571,4.19327731 Z M22.0739496,10.7882353 C21.8252101,10.2840336 21.4890756,9.77310924 21.0621849,9.25882353 C18.1344538,5.73277311 15.5361345,4.66386555 14.1647059,4.33781513 L14.1647059,10.7848739 L22.0739496,10.7848739 L22.0739496,10.7882353 Z M20.1815126,17.0941176 C20.5512605,16.8016807 21.189916,16.2235294 21.7210084,15.4470588 L0.98487395,15.4470588 L0.98487395,17.312605 C13.902521,17.312605 18.205042,17.3394958 19.4655462,17.3495798 C19.7109244,17.3630252 19.9663866,17.2722689 20.1815126,17.0941176 L20.1815126,17.0941176 Z M0.98487395,10.6907563 L3.84537815,10.6907563 L3.84537815,6.5394958 L0.98487395,6.5394958 L0.98487395,10.6907563 Z M4.82352941,10.6907563 L7.56302521,10.6907563 L7.56302521,6.5394958 L4.82689076,6.5394958 L4.82689076,10.6907563 L4.82352941,10.6907563 Z M8.54453782,10.6907563 L11.2067227,10.6907563 L11.2067227,6.5394958 L8.54453782,6.5394958 L8.54453782,10.6907563 Z M-1.77635684e-15,14.8588235 C-1.77635684e-15,14.8554622 0.00336134454,14.8487395 0.00336134454,14.8453782 L0.00336134454,11.292437 C0.00336134454,11.2890756 -1.77635684e-15,11.2857143 -1.77635684e-15,11.2823529 L-1.77635684e-15,5.94789916 L-1.77635684e-15,3.60168067 C-1.77635684e-15,3.44369748 0.0504201681,3.29243697 0.144537815,3.18151261 C0.235294118,3.07058824 0.359663866,3.01008403 0.490756303,3.01008403 L13.1260504,3.01008403 C13.2605042,3.01008403 17.1731092,2.89915966 21.7579832,8.42184874 C23.092437,10.0285714 23.697479,11.6756303 23.5596639,13.3193277 C23.3613445,15.6655462 21.697479,17.312605 20.7260504,18.0823529 C20.3529412,18.3781513 19.9226891,18.5361345 19.4756303,18.5361345 L19.4588235,18.5361345 C18.1848739,18.5226891 13.7882353,18.4991597 0.494117647,18.4991597 C0.221848739,18.4991597 0.00336134454,18.2336134 0.00336134454,17.907563 L0.00336134454,14.8689076 C0.00336134454,14.8689076 -1.77635684e-15,14.8621849 -1.77635684e-15,14.8588235 Z M23.1327731,19.6487395 C23.405042,19.6487395 23.6235294,19.9142857 23.6235294,20.2403361 C23.6235294,20.5663866 23.405042,20.8319328 23.1327731,20.8319328 L0.490756303,20.8319328 C0.218487395,20.8319328 3.94430453e-31,20.5663866 3.94430453e-31,20.2403361 C3.94430453e-31,19.9142857 0.218487395,19.6487395 0.490756303,19.6487395 L23.1327731,19.6487395 Z" id="Metro-_1Light"></path>
        </g>
    </g>
</svg>

<svg width="24" height="24" viewBox="0 0 24 24" xmlns="http://www.w3.org/2000/svg"><path d="M13.143 4.193H.982v1.163h10.715c.273 0 .491.266.491.592v5.334c0 .33-.218.592-.49.592H.984v2.393h21.328c.006 0 .013.004.02.004.124-.34.218-.693.252-1.073.037-.403 0-.813-.09-1.227h-8.821c-.272 0-.49-.262-.49-.591V4.193c-.021.004-.038.004-.041 0zm8.93 6.595a7.85 7.85 0 00-1.01-1.53c-2.929-3.525-5.527-4.594-6.898-4.92v6.447h7.909v.003zm-1.891 6.306a7.82 7.82 0 001.539-1.647H.985v1.866c12.918 0 17.22.026 18.48.037.246.013.501-.078.717-.256zM.985 10.691h2.86V6.539H.985v4.152zm3.839 0h2.739V6.539H4.827v4.152h-.003zm3.72 0h2.663V6.539H8.545v4.152zM0 14.859l.003-.014v-3.553c0-.003-.003-.006-.003-.01v-7.68c0-.158.05-.31.145-.42A.446.446 0 01.49 3.01h12.635c.135 0 4.047-.11 8.632 5.412 1.334 1.607 1.94 3.254 1.802 4.897-.199 2.347-1.863 3.994-2.834 4.763a2.001 2.001 0 01-1.25.454h-.017c-1.274-.013-5.67-.037-18.965-.037-.272 0-.49-.265-.49-.591v-3.04S0 14.863 0 14.859zm23.133 4.79c.272 0 .49.265.49.591 0 .326-.218.592-.49.592H.49c-.273 0-.491-.266-.491-.592 0-.326.218-.591.49-.591h22.643z" fill="#5CB615" fill-rule="nonzero"/></svg>
